inst/app/www/img/login-forma-centro.svg

<svg id="Capa_1" data-name="Capa 1" xmlns="http://www.w3.org/2000/svg" viewBox="0 0 974 589">
    <defs>
        <style>
            .cls-1 {
                fill: #e8e8e8;
            }

            .cls-1,
            .cls-2 {
                fill-rule: evenodd;
            }

            .cls-2 {
                /* DEFAULT */
                fill: #1b263a;
                /* MORENA */
                fill: #aa3917;
                /* MOVCIUDADANO */
                fill: #d6a51d;
                /* PAN */
                fill: #32509b;
                /* PRD */
                fill: #d6a51d;
                /* PRI */
                fill: #aa3917;
            }
        </style>
    </defs>
    <title>login-forma-centro</title>
    <g id="Capa_1-2" data-name="Capa 1-2">
        <path id="forma-blanca-centro" class="cls-1" d="M974,580H0V0H880V.13A99,99,0,0,1,974,99Z" />
        <path id="puntos-mid" class="cls-2"
            d="M510.81,582.68a3.16,3.16,0,1,1-3.18,3.16A3.15,3.15,0,0,1,510.81,582.68Zm-20.94,0a3.16,3.16,0,1,1-3.19,3.16,3.15,3.15,0,0,1,3.19-3.16Zm-20.94,0a3.16,3.16,0,1,1-3.19,3.16,3.15,3.15,0,0,1,3.19-3.16Zm-21.86,0a3.16,3.16,0,1,1-3.18,3.16A3.15,3.15,0,0,1,447.07,582.68Zm-20.94,0a3.16,3.16,0,1,1-3.19,3.16,3.15,3.15,0,0,1,3.19-3.16Zm-20.94,0a3.16,3.16,0,1,1-3.19,3.16,3.15,3.15,0,0,1,3.19-3.16Zm84.68-22.14a3.16,3.16,0,1,1-3.19,3.16A3.15,3.15,0,0,1,489.87,560.54Zm-42.8,0a3.16,3.16,0,1,1-3.18,3.16A3.15,3.15,0,0,1,447.07,560.54Zm63.74,0a3.16,3.16,0,1,1-3.18,3.16A3.15,3.15,0,0,1,510.81,560.54Zm-84.68,0a3.16,3.16,0,1,1-3.19,3.16A3.15,3.15,0,0,1,426.13,560.54Zm42.8,0a3.16,3.16,0,1,1-3.19,3.16,3.15,3.15,0,0,1,3.19-3.16Zm-63.74,0A3.16,3.16,0,1,1,402,563.7a3.15,3.15,0,0,1,3.19-3.16Zm105.62-22.13a3.16,3.16,0,1,1-3.18,3.16A3.15,3.15,0,0,1,510.81,538.41Zm-20.94,0a3.16,3.16,0,1,1-3.19,3.16,3.15,3.15,0,0,1,3.19-3.16Zm-20.94,0a3.16,3.16,0,1,1-3.19,3.16,3.15,3.15,0,0,1,3.19-3.16Zm-21.86,0a3.16,3.16,0,1,1-3.18,3.16A3.15,3.15,0,0,1,447.07,538.41Zm-20.94,0a3.16,3.16,0,1,1-3.19,3.16,3.15,3.15,0,0,1,3.19-3.16Zm-20.94,0a3.16,3.16,0,1,1-3.19,3.16,3.15,3.15,0,0,1,3.19-3.16Zm105.62-22.14a3.16,3.16,0,1,1-3.18,3.16,3.15,3.15,0,0,1,3.18-3.16Zm-20.94,0a3.16,3.16,0,1,1-3.19,3.16,3.15,3.15,0,0,1,3.19-3.16Zm-20.94,0a3.16,3.16,0,1,1-3.19,3.16,3.15,3.15,0,0,1,3.19-3.16Zm-21.86,0a3.16,3.16,0,1,1-3.18,3.16,3.15,3.15,0,0,1,3.18-3.16Zm-20.94,0a3.16,3.16,0,1,1-3.19,3.16,3.15,3.15,0,0,1,3.19-3.16Zm-20.94,0a3.16,3.16,0,1,1-3.19,3.16,3.15,3.15,0,0,1,3.19-3.16Zm105.62-22.13a3.16,3.16,0,1,1-3.18,3.16,3.15,3.15,0,0,1,3.18-3.16Zm-20.94,0a3.16,3.16,0,1,1-3.19,3.16,3.15,3.15,0,0,1,3.19-3.16Zm-20.94,0a3.16,3.16,0,1,1-3.19,3.16,3.15,3.15,0,0,1,3.19-3.16Zm-21.86,0a3.16,3.16,0,1,1-3.18,3.16,3.15,3.15,0,0,1,3.18-3.16Zm-20.94,0a3.16,3.16,0,1,1-3.19,3.16,3.15,3.15,0,0,1,3.19-3.16Zm-20.94,0A3.16,3.16,0,1,1,402,497.3a3.15,3.15,0,0,1,3.19-3.16ZM447.07,472a3.16,3.16,0,1,1-3.18,3.16A3.15,3.15,0,0,1,447.07,472Zm63.74,0a3.16,3.16,0,1,1-3.18,3.16A3.15,3.15,0,0,1,510.81,472Zm-41.88,0a3.16,3.16,0,1,1-3.19,3.16,3.15,3.15,0,0,1,3.19-3.16Zm-42.8,0a3.16,3.16,0,1,1-3.19,3.16A3.15,3.15,0,0,1,426.13,472Zm63.74,0a3.16,3.16,0,1,1-3.19,3.16A3.15,3.15,0,0,1,489.87,472Zm-84.68,0a3.16,3.16,0,1,1-3.19,3.16,3.15,3.15,0,0,1,3.19-3.16Zm105.62-24.32a3.16,3.16,0,1,1-3.18,3.16,3.15,3.15,0,0,1,3.18-3.16Zm-105.62,0a3.16,3.16,0,1,1-3.19,3.16,3.15,3.15,0,0,1,3.19-3.16Zm20.94,0a3.16,3.16,0,1,1-3.19,3.16,3.15,3.15,0,0,1,3.19-3.16Zm20.94,0a3.16,3.16,0,1,1-3.18,3.16,3.15,3.15,0,0,1,3.18-3.16Zm21.86,0a3.16,3.16,0,1,1-3.19,3.16,3.15,3.15,0,0,1,3.19-3.16Zm20.94,0a3.16,3.16,0,1,1-3.19,3.16,3.15,3.15,0,0,1,3.19-3.16Zm-42.8-22.14a3.16,3.16,0,1,1-3.18,3.16,3.15,3.15,0,0,1,3.18-3.16Zm42.8,0a3.16,3.16,0,1,1-3.19,3.16,3.15,3.15,0,0,1,3.19-3.16Zm-84.68,0A3.16,3.16,0,1,1,402,428.7a3.15,3.15,0,0,1,3.19-3.16Zm20.94,0a3.16,3.16,0,1,1-3.19,3.16,3.15,3.15,0,0,1,3.19-3.16Zm42.8,0a3.16,3.16,0,1,1-3.19,3.16,3.15,3.15,0,0,1,3.19-3.16Zm41.88,0a3.16,3.16,0,1,1-3.18,3.16,3.15,3.15,0,0,1,3.18-3.16Zm-20.94-22.13a3.16,3.16,0,1,1-3.19,3.16,3.15,3.15,0,0,1,3.19-3.16Zm-63.74,0a3.16,3.16,0,1,1-3.19,3.16,3.15,3.15,0,0,1,3.19-3.16Zm42.8,0a3.16,3.16,0,1,1-3.19,3.16,3.15,3.15,0,0,1,3.19-3.16Zm-21.86,0a3.16,3.16,0,1,1-3.18,3.16,3.15,3.15,0,0,1,3.18-3.16Zm63.74,0a3.16,3.16,0,1,1-3.18,3.16,3.15,3.15,0,0,1,3.18-3.16Zm-105.62,0a3.16,3.16,0,1,1-3.19,3.16,3.15,3.15,0,0,1,3.19-3.16Zm105.62-22.14a3.16,3.16,0,1,1-3.18,3.16,3.15,3.15,0,0,1,3.18-3.16Zm-20.94,0a3.16,3.16,0,1,1-3.19,3.16,3.15,3.15,0,0,1,3.19-3.16Zm-20.94,0a3.16,3.16,0,1,1-3.19,3.16,3.15,3.15,0,0,1,3.19-3.16Zm-21.86,0a3.16,3.16,0,1,1-3.18,3.16,3.15,3.15,0,0,1,3.18-3.16Zm-20.94,0a3.16,3.16,0,1,1-3.19,3.16,3.15,3.15,0,0,1,3.19-3.16Zm84.68-22.13a3.16,3.16,0,1,1-3.18,3.16,3.15,3.15,0,0,1,3.18-3.16Zm-20.94,0a3.16,3.16,0,1,1-3.19,3.16,3.15,3.15,0,0,1,3.19-3.16Zm-20.94,0a3.16,3.16,0,1,1-3.19,3.16,3.15,3.15,0,0,1,3.19-3.16Zm-21.86,0a3.16,3.16,0,1,1-3.18,3.16,3.15,3.15,0,0,1,3.18-3.16ZM510.81,337a3.16,3.16,0,1,1-3.18,3.16A3.15,3.15,0,0,1,510.81,337Zm-20.94,0a3.16,3.16,0,1,1-3.19,3.16A3.15,3.15,0,0,1,489.87,337Zm-20.94,0a3.16,3.16,0,1,1-3.19,3.16,3.15,3.15,0,0,1,3.19-3.16Z" />
    </g>
</svg>

<svg xmlns="http://www.w3.org/2000/svg" viewBox="0 0 974 589"><defs><style>
/* GENERAL */
/*.cls-1{fill:#e6c699;}
.cls-2{fill:#6e1b33;}*/

/* PAN */
/*.cls-1{fill:#ececec;}
.cls-2{fill:#1e50a9;}*/

/* PRI */
/*.cls-1{fill:#ececec;}
.cls-2{fill:#c00301;}*/

/* MOVIMIENTO */
.cls-1{fill:#ececec;}
.cls-2{fill:#ff8201;}

/* MORENA */
/*.cls-1{fill:#ececec;}
.cls-2{fill:#b92207;}*/

.cls-1,.cls-2{fill-rule:evenodd;}
</style></defs><title>login-forma-centro</title><g id="Capa_2" data-name="Capa 2"><g id="Capa_1-2" data-name="Capa 1"><path id="forma-blanca-centro" class="cls-1" d="M974,580H0V0H880V.13A99,99,0,0,1,974,99Z"/><path id="puntos-mid" class="cls-2" d="M510.81,582.68a3.16,3.16,0,1,1-3.18,3.16A3.17,3.17,0,0,1,510.81,582.68Zm-20.94,0a3.16,3.16,0,1,1-3.19,3.16A3.17,3.17,0,0,1,489.87,582.68Zm-20.94,0a3.16,3.16,0,1,1-3.19,3.16A3.16,3.16,0,0,1,468.93,582.68Zm-21.86,0a3.16,3.16,0,1,1-3.18,3.16A3.17,3.17,0,0,1,447.07,582.68Zm-20.94,0a3.16,3.16,0,1,1-3.19,3.16A3.17,3.17,0,0,1,426.13,582.68Zm-20.94,0a3.16,3.16,0,1,1-3.19,3.16A3.16,3.16,0,0,1,405.19,582.68Zm84.68-22.14a3.16,3.16,0,1,1-3.19,3.16A3.18,3.18,0,0,1,489.87,560.54Zm-42.8,0a3.16,3.16,0,1,1-3.18,3.16A3.18,3.18,0,0,1,447.07,560.54Zm63.74,0a3.16,3.16,0,1,1-3.18,3.16A3.18,3.18,0,0,1,510.81,560.54Zm-84.68,0a3.16,3.16,0,1,1-3.19,3.16A3.18,3.18,0,0,1,426.13,560.54Zm42.8,0a3.16,3.16,0,1,1-3.19,3.16A3.17,3.17,0,0,1,468.93,560.54Zm-63.74,0A3.16,3.16,0,1,1,402,563.7,3.17,3.17,0,0,1,405.19,560.54Zm105.62-22.13a3.16,3.16,0,1,1-3.18,3.16A3.17,3.17,0,0,1,510.81,538.41Zm-20.94,0a3.16,3.16,0,1,1-3.19,3.16A3.17,3.17,0,0,1,489.87,538.41Zm-20.94,0a3.16,3.16,0,1,1-3.19,3.16A3.16,3.16,0,0,1,468.93,538.41Zm-21.86,0a3.16,3.16,0,1,1-3.18,3.16A3.17,3.17,0,0,1,447.07,538.41Zm-20.94,0a3.16,3.16,0,1,1-3.19,3.16A3.17,3.17,0,0,1,426.13,538.41Zm-20.94,0a3.16,3.16,0,1,1-3.19,3.16A3.16,3.16,0,0,1,405.19,538.41Zm105.62-22.14a3.16,3.16,0,1,1-3.18,3.16A3.18,3.18,0,0,1,510.81,516.27Zm-20.94,0a3.16,3.16,0,1,1-3.19,3.16A3.18,3.18,0,0,1,489.87,516.27Zm-20.94,0a3.16,3.16,0,1,1-3.19,3.16A3.17,3.17,0,0,1,468.93,516.27Zm-21.86,0a3.16,3.16,0,1,1-3.18,3.16A3.18,3.18,0,0,1,447.07,516.27Zm-20.94,0a3.16,3.16,0,1,1-3.19,3.16A3.18,3.18,0,0,1,426.13,516.27Zm-20.94,0a3.16,3.16,0,1,1-3.19,3.16A3.17,3.17,0,0,1,405.19,516.27Zm105.62-22.13a3.16,3.16,0,1,1-3.18,3.16A3.17,3.17,0,0,1,510.81,494.14Zm-20.94,0a3.16,3.16,0,1,1-3.19,3.16A3.17,3.17,0,0,1,489.87,494.14Zm-20.94,0a3.16,3.16,0,1,1-3.19,3.16A3.16,3.16,0,0,1,468.93,494.14Zm-21.86,0a3.16,3.16,0,1,1-3.18,3.16A3.17,3.17,0,0,1,447.07,494.14Zm-20.94,0a3.16,3.16,0,1,1-3.19,3.16A3.17,3.17,0,0,1,426.13,494.14Zm-20.94,0A3.16,3.16,0,1,1,402,497.3,3.16,3.16,0,0,1,405.19,494.14ZM447.07,472a3.16,3.16,0,1,1-3.18,3.16A3.18,3.18,0,0,1,447.07,472Zm63.74,0a3.16,3.16,0,1,1-3.18,3.16A3.18,3.18,0,0,1,510.81,472Zm-41.88,0a3.16,3.16,0,1,1-3.19,3.16A3.17,3.17,0,0,1,468.93,472Zm-42.8,0a3.16,3.16,0,1,1-3.19,3.16A3.18,3.18,0,0,1,426.13,472Zm63.74,0a3.16,3.16,0,1,1-3.19,3.16A3.18,3.18,0,0,1,489.87,472Zm-84.68,0a3.16,3.16,0,1,1-3.19,3.16A3.17,3.17,0,0,1,405.19,472Zm105.62-24.32a3.16,3.16,0,1,1-3.18,3.16A3.17,3.17,0,0,1,510.81,447.68Zm-105.62,0a3.16,3.16,0,1,1-3.19,3.16A3.16,3.16,0,0,1,405.19,447.68Zm20.94,0a3.16,3.16,0,1,1-3.19,3.16A3.17,3.17,0,0,1,426.13,447.68Zm20.94,0a3.16,3.16,0,1,1-3.18,3.16A3.17,3.17,0,0,1,447.07,447.68Zm21.86,0a3.16,3.16,0,1,1-3.19,3.16A3.16,3.16,0,0,1,468.93,447.68Zm20.94,0a3.16,3.16,0,1,1-3.19,3.16A3.17,3.17,0,0,1,489.87,447.68Zm-42.8-22.14a3.16,3.16,0,1,1-3.18,3.16A3.18,3.18,0,0,1,447.07,425.54Zm42.8,0a3.16,3.16,0,1,1-3.19,3.16A3.18,3.18,0,0,1,489.87,425.54Zm-84.68,0A3.16,3.16,0,1,1,402,428.7,3.17,3.17,0,0,1,405.19,425.54Zm20.94,0a3.16,3.16,0,1,1-3.19,3.16A3.18,3.18,0,0,1,426.13,425.54Zm42.8,0a3.16,3.16,0,1,1-3.19,3.16A3.17,3.17,0,0,1,468.93,425.54Zm41.88,0a3.16,3.16,0,1,1-3.18,3.16A3.18,3.18,0,0,1,510.81,425.54Zm-20.94-22.13a3.16,3.16,0,1,1-3.19,3.16A3.17,3.17,0,0,1,489.87,403.41Zm-63.74,0a3.16,3.16,0,1,1-3.19,3.16A3.17,3.17,0,0,1,426.13,403.41Zm42.8,0a3.16,3.16,0,1,1-3.19,3.16A3.16,3.16,0,0,1,468.93,403.41Zm-21.86,0a3.16,3.16,0,1,1-3.18,3.16A3.17,3.17,0,0,1,447.07,403.41Zm63.74,0a3.16,3.16,0,1,1-3.18,3.16A3.17,3.17,0,0,1,510.81,403.41Zm-105.62,0a3.16,3.16,0,1,1-3.19,3.16A3.16,3.16,0,0,1,405.19,403.41Zm105.62-22.14a3.16,3.16,0,1,1-3.18,3.16A3.18,3.18,0,0,1,510.81,381.27Zm-20.94,0a3.16,3.16,0,1,1-3.19,3.16A3.18,3.18,0,0,1,489.87,381.27Zm-20.94,0a3.16,3.16,0,1,1-3.19,3.16A3.17,3.17,0,0,1,468.93,381.27Zm-21.86,0a3.16,3.16,0,1,1-3.18,3.16A3.18,3.18,0,0,1,447.07,381.27Zm-20.94,0a3.16,3.16,0,1,1-3.19,3.16A3.18,3.18,0,0,1,426.13,381.27Zm84.68-22.13a3.16,3.16,0,1,1-3.18,3.16A3.17,3.17,0,0,1,510.81,359.14Zm-20.94,0a3.16,3.16,0,1,1-3.19,3.16A3.17,3.17,0,0,1,489.87,359.14Zm-20.94,0a3.16,3.16,0,1,1-3.19,3.16A3.16,3.16,0,0,1,468.93,359.14Zm-21.86,0a3.16,3.16,0,1,1-3.18,3.16A3.17,3.17,0,0,1,447.07,359.14ZM510.81,337a3.16,3.16,0,1,1-3.18,3.16A3.18,3.18,0,0,1,510.81,337Zm-20.94,0a3.16,3.16,0,1,1-3.19,3.16A3.18,3.18,0,0,1,489.87,337Zm-20.94,0a3.16,3.16,0,1,1-3.19,3.16A3.17,3.17,0,0,1,468.93,337Z"/></g></g></svg>
